X:1
T:Title
%%score [ { 1 | 2 } | 3 | 4 | 5 ] { ( 6 7 ) | ( 8 9 10 ) }
L:1/8
Q:1/4=114
M:4/4
K:F
V:1 treble nm="Soprano I"
V:2 treble nm="Soprano II"
V:3 treble nm="Alto"
V:4 treble-8 nm="Tenor"
V:5 bass nm="Bass"
V:6 treble nm="Piano\nfor practice only"
V:7 treble 
V:8 bass 
V:9 bass 
V:10 bass 
V:1
"^Moderato ma non troppo" z8 | z8 | z2!mp! C2 C2 C2 | C4 D2 E2 | F6 G2 |!<(! A2!<)! F2 d2 c2 | %6
!>(! (c4!>)! =B4) | =B4 z4 | B2 B2 A2 G2 | A6 F2 | (D2 F2) (F2 E2) | F6 z2 | z8 | z8 | z8 | %15
 z2!p! C2 D2 E2 | F4 A4 | (c3 B A2) G2 | F8 | C4 z4 | z8 | z2!mf! F2 F2 G2 | (A6 F2) | E4 D4 | C8 | %25
 z4!p! C2 C2 | C4 C4 | (F4 E4) | D4 (D4- | D2 E2 F2) G2 | F4 E4 | z4 z2!mp! E2 | F2 F2 A4 | %33
 (G6 A2) | B6 B2 | B8 |!<(! A2 A2 A2!<)! A2 | =B4!>(! (A2 G2) | F8 | E4!>)! z2 G2 |!<(! A6!<)! A2 | %41
 B4!>(! A4 | G8 | F4!>)! z2 F2 | G4 F4 |!<(! B8!<)! | A4 z2!mf! A2 | d6 d2 | c4 B4 | (B4 A4) | G8 | %51
!p! G2 F2 E2 G2 | B4 A4 | G6 G2 | !fermata!F4 z4 |] %55
V:2
 z8 | z8 | z8 | z8 | z8 | z8 | z8 | z8 | z8 | z8 | z8 |!p! z8 | G4 G4 | A6 A2 | B6 B2 | B4 z4 | %16
 z8 | z8 | z8 | z2!mp! C2 D2 E2 | F4 A4 | c6 G2 | (F6 D2) | C4 =B,4 | C8 | z8 | z8 | z8 | z8 | z8 | %30
 z8 | z4 z2!mp! C2 | C2 C2 C4 | E8 | G6 G2 | G8 |!<(! E2 E2 E2!<)! E2 | G4!>(! (F2 E2) | D8 | %39
 C4!>)! z2 C2 |!<(! F6!<)! F2 | G4!>(! F4 | E8 | C4!>)! z2 C2 | E4 F4 |!<(! (F4 E4)!<)! | %46
 F4 z2!mf! F2 | B6 B2 | A4 G4 | F8 | E8 | z8 |!p! c4 c4 | B6 B2 | !fermata!A4 z4 |] %55
V:3
 z8 | z8 | z8 | z8 | z8 | z8 | z8 | z8 | z8 | z8 | z8 |!p! z8 | D4 E4 | F6 F2 | (F4 E2) E2 | %15
 E4 z4 | z8 | z8 | z8 | z2!mp! C2 D2 E2 | F4 F4 | (F4 C2) C2 | C4 (=B,2 G,2) | G,4 G,4 | G,8 | z8 | %26
 z8 | z8 | z8 | z8 | z8 | z4 z2!mp! G,2 | A,2 A,2 F,4 | C8 | D6 D2 | D8 |!<(! C2 C2 C2!<)! C2 | %37
 D4!>(! C4 | =B,8 | C4!>)! z2 C2 |!<(! C6!<)! C2 | C4!>(! C4 | C8 | C4!>)! z2 C2 | C4 C4 | %45
!<(! C8!<)! | C4 z2!mf! D2 | F6 F2 | E4 E4 | F8 | C8 | z8 |!p! C4 C4 | C6 C2 | !fermata!C4 z4 |] %55
V:4
 z8 | z8 | z8 | z8 | z8 | z8 | z8 | z8 | z8 | z8 | z8 |!p! z8 | =B4 c4 | c6 c2 | c6 c2 | c4 z4 | %16
 z8 | z8 | z8 | z2!mp! C2 D2 E2 | F4 F4 | (F4 G2) G2 | (C4 F4) | G4 F4 | E8 | z8 | z8 | z8 | z8 | %29
 z8 | z8 | z4 z2!mp! G2 | C2 C2 C4 | C8 | G6 G2 | G8 |!<(! A2 A2 A2!<)! A2 | G4!>(! G4 | G8 | %39
 G4!>)! z2 E2 |!<(! F6!<)! F2 | E4!>(! F4 | G8 | A4!>)! z2 F2 | G4 F4 |!<(! E8!<)! | F4 z2!mf! F2 | %47
 F6 B2 | A4 c4 | c8 | G8 | z8 |!p! E4 F4 | (F4 E2) E2 | !fermata!F4 z4 |] %55
V:5
 z8 | z8 | z8 | z8 | z8 | z8 | z8 | z8 | z8 | z8 | z8 |!p! z8 | F,4 E,4 | F,6 F,2 | G,6 G,2 | %15
 G,4 z4 | z8 | z8 | z8 | z2!mp! C,2 D,2 E,2 | F,4 D,4 | (A,,4 E,,2) E,,2 | (F,,4 G,,4) | %23
 G,,4 G,,4 | [C,,C,]8 | z8 | z8 | z8 | z8 | z8 | z8 | z4 z2!mp! E,,2 | F,,2 F,,2 A,,4 | C,8 | %34
 G,,6 G,,2 | G,,8 |!<(! A,,2 A,,2 A,,2!<)! A,,2 | G,,4!>(! G,,4 | G,,8 | C,4!>)! z2 B,,2 | %40
!<(! A,,6!<)! A,,2 | G,,4!>(! F,,4 | C,8 | F,,4!>)! z2 A,,2 | B,,4 A,,4 |!<(! G,,8!<)! | %46
 A,,4 z2!mf! D,2 | B,,6 D,2 | E,4 C,4 | F,8 | C,8 | z8 |!p! G,,4 A,,4 | (B,,4 C,2) C,2 | %54
 !fermata![F,,C,]4 z4 |] %55
V:6
!mp! A2 c2- c>BAB | c4- c>dc>B | A2 C2 C2 C2 | C4 D2 E2 | F6 G2 |!<(! A2!<)! F2 d2 c2 | %6
!>(! (c4!>)! =B4) | =B4 z4 | B2 B2 A2 G2 | A6 F2 | D2 F2 F2 E2 | F6 z2 |!p! [DG]4 [EG]4 | A8 | %14
 [CFB]8 | [CEB]2!p! C2 D2 E2 | F4 A4 | c3 B A2 G2 | F8 | C2!mp! C2 D2 E2 | [CF]4 [FA]4 | c8 | A8 | %23
 E4 D4 | C8 | z4!p! C2 C2 | C4 C4 | F4 E4 | D4 (D4- | D2 E2 F2 G2) | F4 E4 | C4 z2!mp! [G,CE]2 | %32
 [CF]2 [CF]2 A4 | G8 | B8 | [DGB]8 |!<(! [CEA]2 [CEA]2 [CEA]2!<)! [CEA]2 | %37
 [DG=B]4!>(! [FA]2 [EG]2 | [=B,DF]8 | [CE]4!>)! z2 [CG]2 | [CFA]6 [CFA]2 | [CGB]4!>(! [CFA]4 | %42
 [CEG]8 | [CF]4!>)! z2 [CF]2 | [CEG]4 [CF]4 |!<(! B8!<)! | [CFA]4 z2!mf! [DFA]2 | [FBd]8 | %48
 [EAc]4 [EGB]4 | [FB]4 A4 | [EG]8 |!p! [EG]2 [DF]2 [CE]2 [EG]2 | [CEGB]4 [CFA]4 | [FG]6 [EG]2 | %54
 !fermata![CF]4 z4 |] %55
V:7
 F8 | F8 | F2 C2 C2 C2 | C4 B,4 | [A,C]8 | [CF]4 [FA]4 | [DG]8 | [DG]4 x4 | D4 C4 | C8 | B,4 B,4 | %11
 A,6 x2 | =B,4 C4 | [CF]8 | x8 | x8 | x8 | x8 | x8 | x4 C4 | x8 | F4 C2 C2 | C4 =B,2 G,2 | %23
 C4 =B,4 | G,8 | x8 | x4 A,4 | D4 C4 | B,4 A,4 | G,8 | A,6 G,2 | A,4 x4 | A,2 A,2 [CF]4 | [CE]8 | %34
 [DG]8 | x8 | x8 | x4 C4 | x8 | x8 | x8 | x8 | x8 | x8 | x8 | [CF]4 E4 | x8 | F6 D2 | E4 C4 | C8 | %50
 C8 | x8 | x8 | C6 C2 | x8 |] %55
V:8
 A,2 C2- C>B,A,B, | C4- C>DC>B, | A,2 C,2 C,2 C,2 | C,8 | F,8- | F,4 A,4 | G,8- | G,4 z4 | %8
 G,4 E,4 | F,8 | F,2 D,2 D,2 C,2 | C,6 z2 | F,4 E,4 | F,8 | G,8 | G,2 C,2 D,2 E,2 | F,4 A,4 | %17
 C3 B, A,2 G,2 | F,8 | C,2 C,2 D,2 E,2 | F,4 [D,F,]4 | [F,,F,]4 [E,,G,]4 | C,4 F,4 | %23
 [G,,G,]4 [G,,F,]4 | [C,,C,E,]8 | x8 | x8 | x8 | x8 | x8 | x8 | x8 | C,2 C,2 [A,,C,]4 | [C,E,]8 | %34
 [G,,G,]8 | [G,,G,]8 | [A,,A,]2 [A,,A,]2 [A,,A,]2 [A,,A,]2 | [G,,G,]4 [G,,G,]4 | [G,,G,]8 | %39
 [C,G,]4 z2 [B,,E,]2 | [A,,F,]6 [A,,F,]2 | [G,,E,]4 [F,,F,]4 | [C,G,]8 | [A,,A,]4 z2 [A,,F,]2 | %44
 [B,,G,]4 [A,,F,]4 | [G,,E,]8 | [A,,F,]4 z2 [D,F,]2 | [B,,F,]6 [D,B,]2 | [E,A,]4 [C,G,]4 | %49
 [F,A,]8 | [C,G,]8 | x8 | [G,,E,]4 [A,,F,]4 | F,4 E,2 [C,E,]2 | !fermata![F,,C,F,]4 z4 |] %55
V:9
 F,2 A,2- A,>G,F,G, | A,4- A,>B,A,>G, | F,2 C,2 C,2 C,2 | C,4 [G,,B,,]4 | [F,,A,,]4 F,4 | %5
 F,,4 F,4 | G,,8- | G,,4 x4 | B,,4 C,4 | F,,6 A,,2 | B,,4 C,4 | F,,6 x2 | x8 | x8 | x8 | x8 | x8 | %17
 x8 | x8 | x8 | x8 | x8 | F,,4 G,,4 | x8 | x8 | x8 | x8 | x8 | x8 | x8 | x8 | x8 | F,,2 F,,2 x4 | %33
 x8 | x8 | x8 | x8 | x8 | x8 | x8 | x8 | x8 | x8 | x8 | x8 | x8 | x8 | x8 | x8 | x8 | x8 | x8 | %52
 x8 | B,,4 C,2 x2 | x8 |] %55
V:10
 x8 | x8 | x8 | x8 | x8 | x8 | x8 | x8 | x8 | x8 | x8 | x8 | x8 | x8 | C,8 | x8 | x8 | x8 | x8 | %19
 x8 | x8 | x4[I:staff -1] G4 | F8 | x8 | x8 | x8 | x8 | x8 | x8 | x8 | x8 | x8 | x8 | x8 | x8 | %35
 x8 | x8 | x8 | x8 | x8 | x8 | x8 | x8 | x8 | x8 | x8 | x8 | x8 | x8 | x8 | x8 | x8 | x8 | x8 | %54
 x8 |] %55

